icons/icn_infoCoor.svg

<svg width="24" xmlns="http://www.w3.org/2000/svg" height="24" id="screenshot-db98763a-3795-80f3-8006-369fae80a081" viewBox="0 0 24 24" xmlns:xlink="http://www.w3.org/1999/xlink" fill="none" version="1.1"><g id="shape-db98763a-3795-80f3-8006-369fae80a081"><g class="frame-container-wrapper"><g class="frame-container-blur"><g class="frame-container-shadows"><g fill="none"><g class="fills" id="fills-db98763a-3795-80f3-8006-369fae80a081"><rect rx="0" ry="0" x="0" y="0" width="24" height="24.000000000000455" transform="matrix(1, 0, 0, 1, 0, 0)" class="frame-background"/></g><g class="frame-children"><g id="shape-db98763a-3795-80f3-8006-369f84a5f4c0" rx="0" ry="0" style="fill: rgb(0, 0, 0);"><g id="shape-db98763a-3795-80f3-8006-369f84a71ef5"><g class="fills" id="fills-db98763a-3795-80f3-8006-369f84a71ef5"><path d="M10.119174003601074,1.958595871925354C6.257602214813232,1.958595871925354,3.0466644763946533,4.7592549324035645,3.0019867420196533,8.941018104553223C2.9895355701446533,10.107644081115723,3.4285004138946533,11.407570838928223,4.043002605438232,12.786721229553223C4.657504558563232,14.165871620178223,5.465854167938232,15.604226112365723,6.273471355438232,16.921485900878906C7.888705730438232,19.556007385253906,9.505892753601074,21.704689025878906,9.505892753601074,21.704689025878906C9.640414237976074,21.882423400878906,9.846957206726074,21.991188049316406,10.069613456726074,22.001319885253906C10.292269706726074,22.011451721191406,10.508090019226074,21.922096252441406,10.658236503601074,21.757423400878906C10.658236503601074,21.757423400878906,11.677523612976074,20.626197814941406,12.892611503601074,18.909767150878906C13.747103691101074,19.591285705566406,14.827914237976074,19.999610900878906,16.00198745727539,19.999610900878906C18.75564956665039,19.999610900878906,21.00003433227539,17.755104064941406,21.00003433227539,15.001564979553223C21.00003433227539,12.556008338928223,19.22952651977539,10.507546424865723,16.90433120727539,10.079689979553223C16.95901870727539,9.673806190490723,16.99271011352539,9.266945838928223,16.99808120727539,8.860939979553223C16.99808120727539,8.860329627990723,16.99808120727539,8.859597206115723,16.99808120727539,8.858986854553223C16.99808120727539,8.858376502990723,16.99808120727539,8.857644081115723,16.99808120727539,8.857033729553223C16.99808120727539,8.856423377990723,16.99808120727539,8.855690956115723,16.99808120727539,8.855080604553223C16.99808120727539,8.854470252990723,16.99808120727539,8.853737831115723,16.99808120727539,8.853127479553223C17.02347183227539,5.4611592292785645,14.091341972351074,1.958595871925354,10.119174003601074,1.958595871925354ZM10.119174003601074,3.4566428661346436C13.180453300476074,3.4566428661346436,15.518588066101074,6.3511738777160645,15.500033378601074,8.837502479553223C15.494662284851074,9.228371620178223,15.455111503601074,9.630837440490723,15.390658378601074,10.036721229553223C12.924105644226074,10.340798377990723,11.003939628601074,12.455056190490723,11.003939628601074,15.001564979553223C11.003939628601074,16.031593322753906,11.318148612976074,16.990089416503906,11.855502128601074,17.786720275878906C11.036654472351074,18.964576721191406,10.479525566101074,19.572731018066406,10.140658378601074,19.962501525878906C9.718539237976074,19.389381408691406,8.839632987976074,18.243629455566406,7.548861980438232,16.138282775878906C6.762973308563232,14.856545448303223,5.981235027313232,13.461159706115723,5.408236980438232,12.175393104553223C4.835238933563232,10.889626502990723,4.491977214813232,9.698464393615723,4.500033855438232,8.956643104553223C4.537143230438232,5.5044941902160645,6.947299480438232,3.4566428661346436,10.119174003601074,3.4566428661346436ZM15.855502128601074,11.749611854553223C16.32962417602539,11.749611854553223,16.71438980102539,12.114968299865723,16.71487808227539,12.566018104553223C16.71512222290039,12.782937049865723,16.62479019165039,12.991189002990723,16.46341323852539,13.144631385803223C16.30228042602539,13.298195838928223,16.08353042602539,13.384377479553223,15.855502128601074,13.384377479553223C15.627474784851074,13.384377479553223,15.408724784851074,13.298195838928223,15.247591972351074,13.144631385803223C15.086215019226074,12.991189002990723,14.995882987976074,12.782937049865723,14.996127128601074,12.566018104553223C14.996615409851074,12.114968299865723,15.381381034851074,11.749611854553223,15.855502128601074,11.749611854553223ZM15.845736503601074,14.526955604553223C16.03934097290039,14.527810096740723,16.22488784790039,14.602028846740723,16.36087417602539,14.733254432678223C16.49686050415039,14.864480018615723,16.57205581665039,15.041848182678223,16.57034683227539,15.226174354553223L16.57034683227539,17.800392150878906C16.56741714477539,18.179664611816406,16.24441909790039,18.486183166503906,15.845736503601074,18.487892150878906C15.443881034851074,18.490211486816406,15.116244316101074,18.182594299316406,15.113314628601074,17.800392150878906L15.113314628601074,15.226174354553223C15.111361503601074,15.040627479553223,15.187777519226074,14.862038612365723,15.325472831726074,14.730690956115723C15.463168144226074,14.599221229553223,15.650668144226074,14.525856971740723,15.845736503601074,14.526955604553223Z" style="display: inline; stroke-linecap: round; stroke-linejoin: round; fill: rgb(0, 0, 0); fill-opacity: 1;"/></g></g><g id="shape-db98763a-3795-80f3-8006-369f84a77f46"><g class="fills" id="fills-db98763a-3795-80f3-8006-369f84a77f46"><path d="M9.633334159851074,5.2905049324035645C7.953647136688232,5.2905049324035645,6.577426433563232,6.6667256355285645,6.577426433563232,8.346535682678223C6.577426433563232,10.026345252990723,7.953647136688232,11.402688026428223,9.633334159851074,11.402688026428223C11.313265800476074,11.402688026428223,12.689486503601074,10.026345252990723,12.689486503601074,8.346535682678223C12.689486503601074,6.6667256355285645,11.313265800476074,5.2905049324035645,9.633334159851074,5.2905049324035645ZM9.633334159851074,6.7889180183410645C10.502474784851074,6.7889180183410645,11.190951347351074,7.4773945808410645,11.190951347351074,8.346535682678223C11.190951347351074,9.215676307678223,10.502474784851074,9.904152870178223,9.633334159851074,9.904152870178223C8.764193534851074,9.904152870178223,8.075716972351074,9.215676307678223,8.075716972351074,8.346535682678223C8.075716972351074,7.4773945808410645,8.764193534851074,6.7889180183410645,9.633334159851074,6.7889180183410645Z" style="display: inline; stroke-linecap: round; stroke-linejoin: round; fill: rgb(0, 0, 0); fill-opacity: 1;"/></g></g></g></g></g></g></g></g></g></svg>

<svg fill="none" viewBox="0 0 24 24"><g class="frame-container-wrapper"><g class="frame-container-blur"><g class="frame-container-shadows"><g class="fills"><rect width="24" height="24" class="frame-background" rx="0" ry="0"/></g><g fill="#000" class="frame-children"><path d="M10.1192 1.9586c-3.8616 0-7.0725 2.8007-7.1172 6.9824-.0125 1.1666.4265 2.4666 1.041 3.8457.6145 1.3792 1.4229 2.8175 2.2305 4.1348 1.6152 2.6345 3.2324 4.7832 3.2324 4.7832a.7498.7498 0 0 0 1.1523.0527s1.0193-1.1312 2.2344-2.8476c.8545.6815 1.9353 1.0898 3.1094 1.0898 2.7536 0 4.998-2.2445 4.998-4.998 0-2.4456-1.7705-4.494-4.0957-4.922.0547-.4058.0884-.8127.0938-1.2187v-.0078c.0254-3.392-2.9068-6.8945-6.879-6.8945Zm0 1.498c3.0613 0 5.3994 2.8946 5.3808 5.3809-.0053.3909-.0449.7933-.1093 1.1992-2.4666.3041-4.3868 2.4184-4.3868 4.9649 0 1.03.3142 1.9885.8516 2.7851-.8188 1.1779-1.376 1.786-1.7148 2.1758-.4222-.5731-1.301-1.7189-2.5918-3.8242-.786-1.2818-1.5677-2.6771-2.1407-3.963-.573-1.2857-.9162-2.4768-.9082-3.2187.0371-3.4521 2.4473-5.5 5.6192-5.5Zm5.7363 8.293c.4741 0 .8589.3654.8594.8164.0002.217-.0901.4252-.2515.5786-.1611.1536-.3799.2398-.6079.2398-.228 0-.4468-.0862-.608-.2398-.1613-.1534-.2516-.3617-.2514-.5786.0005-.451.3853-.8164.8594-.8164Zm-.0098 2.7774c.1936.0008.3792.075.5152.2063.136.1312.2112.3085.2094.4929v2.5742c-.0029.3793-.3259.6858-.7246.6875-.4018.0023-.7295-.3053-.7324-.6875v-2.5742c-.002-.1856.0745-.3642.2122-.4955.1377-.1315.3252-.2048.5202-.2037Z" class="fills"/><path d="M9.6333 5.2905c-1.6797 0-3.0559 1.3762-3.0559 3.056s1.3762 3.0562 3.056 3.0562c1.6799 0 3.056-1.3764 3.056-3.0562s-1.3761-3.056-3.056-3.056Zm0 1.4984c.8692 0 1.5577.6885 1.5577 1.5576 0 .8692-.6885 1.5577-1.5577 1.5577-.8691 0-1.5576-.6885-1.5576-1.5577 0-.8691.6885-1.5576 1.5576-1.5576Z" class="fills"/></g></g></g></g></svg>
